dist/img/footer/in.svg

<svg width="19" height="19" viewBox="0 0 19 19" fill="none" xmlns="http://www.w3.org/2000/svg">
<path d="M4.29754 19H0.376829V6.33331H4.29754V19ZM2.3185 4.67451C1.03804 4.67451 0 3.62801 0 2.33729C0 1.04643 1.03818 0 2.3185 0C3.59882 0 4.63686 1.04643 4.63686 2.33729C4.63693 3.62808 3.59889 4.67451 2.3185 4.67451ZM18.9904 19H15.0887V12.351C15.0887 10.5274 14.396 9.50947 12.954 9.50947C11.3847 9.50947 10.5648 10.5697 10.5648 12.351V19H6.80438V6.33331H10.5648V8.0393C10.5648 8.0393 11.6959 5.94694 14.3818 5.94694C17.0677 5.94694 18.9905 7.58695 18.9905 10.9796L18.9904 19Z" fill="white"/>
</svg>

<svg width="19" height="19" fill="none" xmlns="http://www.w3.org/2000/svg"><path d="M4.298 19H.377V6.333h3.92V19ZM2.318 4.675A2.328 2.328 0 0 1 0 2.337 2.328 2.328 0 0 1 2.318 0a2.328 2.328 0 0 1 2.319 2.337 2.328 2.328 0 0 1-2.318 2.338ZM18.99 19h-3.9v-6.649c0-1.824-.693-2.842-2.135-2.842-1.57 0-2.39 1.06-2.39 2.842V19h-3.76V6.333h3.76V8.04s1.132-2.092 3.818-2.092 4.609 1.64 4.609 5.033V19Z" fill="#fff"/></svg>
